assets/images/script/m.svg

<svg fill="none" height="253" viewBox="0 0 3090 253" width="3090" xmlns="http://www.w3.org/2000/svg"><g stroke="#000"><g stroke-dasharray="10 10"><path d="m0 151.5h3090"/><path d="m0 239.5h3090"/><path d="m0 91.5h3090"/><path d="m0 1.5h3090"/></g><g stroke-linecap="round" stroke-width="5"><path d="m163.973 3.10352c19.012 0-37.591 3.09022-56.563 4.31421-4.76.30713-95.41 2.14873-95.41-2.73142 0-.27045 18.1293 17.51359 19.017 18.24689 26.3519 21.769 47.892 48.1913 63.8775 78.4248 15.5095 29.333 32.9995 63.812 35.5955 97.442.487 6.302 1.021 46.501-15.441 38.27-15.0875-7.544-24.9483-31.711-27.3875-47.373-3.5827-23.004 1.0398-45.496 16.8225-62.902 15.853-17.484 34.353-26.558 55.539-36.6345 10.015-4.7633 22.848-10.4688 31.126 0 5.963 7.5412 37.596 48.6015 10.096 59.1015-18.5 2-37-17.5-37-27s6-18.5 21.5-18.5" stroke-opacity=".3"/><path d="m163.973 3.10352c19.012 0-37.591 3.09022-56.563 4.31421-4.76.30713-95.41 2.14873-95.41-2.73142 0-.27045 18.1293 17.51359 19.017 18.24689 26.3519 21.769 47.892 48.1913 63.8775 78.4248 15.5095 29.333 32.9995 63.812 35.5955 97.442.487 6.302 1.021 46.501-15.441 38.27-15.0875-7.544-24.9483-31.711-27.3875-47.373-3.5827-23.004 1.0398-45.496 16.8225-62.902 15.853-17.484 34.353-26.558 55.539-36.6345"/><path d="m529.705 138.04c-4.661 4.661 4.241 7.151 8.289 8.777 21.939 8.812 48.437 2.405 67.779-9.752 9.026-5.674 24.382-24.782 19.179-37.932-6.838-17.2851-31.419-25.403-47.298-30.0696-28.954-8.5089-61.39-11.8416-91.509-9.5897-4.674.3494-27.289 3.5011-27.144 3.4133 56.366-34.3097 125.591-39.0048 187.406-57.86364 10.493-3.20128 7.148 3.61761 8.696 12.19034 5.245 29.0495 20.604 56.0167 32.589 82.6507 14.408 32.0176 27.484 64.8966 25.762 100.7736-.697 14.525-7.807 32.275-23.324 37.447-13.831 4.611-12.637-15.545-12.353-23.225 1-27.005 8.935-54.263 24.95-76.149 15.246-20.837 22.252-28.754 43.969-42.9944 1.896-1.2431 8.956-6.7265 11.784-4.551 2.013 1.5483.558 3.0998-.406 4.0634" stroke-opacity=".3"/><path d="m655.103 17.2139c5.245 29.0495 20.604 56.0167 32.589 82.6506 14.408 32.0175 27.484 64.8975 25.762 100.7735-.697 14.526-7.807 32.275-23.324 37.447-13.831 4.611-12.637-15.545-12.353-23.225 1-27.005 8.935-54.262 24.95-76.149 15.246-20.836 22.252-28.754 43.969-42.9942 1.896-1.2431 8.956-6.7265 11.784-4.5511 2.013 1.5484.558 3.0998-.406 4.0634"/><path d="m960.576 127.131c1.584 14.259 47.284-3.476 53.154-7.315 6.39-4.179 14.8-11.566 6.34-18.204-11.37-8.91-25.746-7.832-39.014-4.8759-9.377 2.0891-28.637 5.8359-32.345 16.7419-3.992 11.741 9.735 22.597 18.692 26.818 20.193 9.518 44.247 9.04 65.987 8.127 37.96-1.593 77.77-5.185 114.92-13.409 15.31-3.392 33.25-7.505 41.61-22.024 7.66-13.3209 3.87-24.1639-4.39-36.2461-22.52-32.9508-67.54-63.588-106.06-65.7684-4.73-.2681-26.62-3.23442-29.25 3.0882-3.79 9.0796 3.58 26.4291 5.6 34.9457 15.28 64.4596 14.86 126.7436 17.4 192.7026" stroke-opacity=".3"/><path d="m1033.39 148.423c37.96-1.593 77.77-5.185 114.92-13.409 15.31-3.392 33.25-7.505 41.61-22.024 7.66-13.3209 3.87-24.1639-4.39-36.2461-22.52-32.9508-67.54-63.588-106.06-65.7684-4.73-.2681-26.62-3.23442-29.25 3.0882-3.79 9.0796 3.58 26.4291 5.6 34.9457 15.28 64.4596 14.86 126.7436 17.39 192.7026"/><path d="m1557.25 10.9752c-.61-4.87582-110.3 6.0352-121.74 6.9892-8.7.7248.99 1.7773 5.36 5.6888 31.96 28.595 47.61 56.4744 60.95 95.9638 8.36 24.755 13.06 50.27 14.87 76.312 1.02 14.611 4.08 29.385-5.12 42.355-15.35 21.646-35.57-6.546-37.05-20.494-3.31-31.098 25.73-54.408 46.97-72.167 30.87-25.809 60.62-38.582 74.12-78.1518 4.95-14.5299 2.83-25.5543 1.22-40.0657-.85-7.6147 4.04 14.9335 4.22 22.5928.88 36.3377.66 61.9957-.73 98.3067-.8 20.781-1.14 35.761-2.76 56.496-.93 11.843-2.36 24.189-8.78 34.458-9.55 15.278-12.98 1.57-15.28-10.727-5.15-27.579 9.49-54.142 27.14-74.7 10.13-11.792 22.92-21 35.93-29.339 8.87-5.69 19.25-10.921 25.51-19.748 4.08-5.7371-1.77-8.3707-6.82-8.3707" stroke-opacity=".3"/><path d="m1595.61 67.4714c4.95-14.5298 2.83-25.5542 1.22-40.0657-.85-7.6147 4.04 14.9335 4.22 22.5928.88 36.3377.66 61.9965-.73 98.3065-.8 20.781-1.14 35.761-2.76 56.496-.93 11.843-2.36 24.189-8.78 34.459-9.55 15.278-12.98 1.569-15.28-10.728-5.15-27.578 9.49-54.142 27.14-74.7 10.13-11.792 22.92-21 35.93-29.338 8.87-5.69 19.25-10.922 25.51-19.749 4.08-5.7369-1.77-8.3705-6.82-8.3705"/><path d="m2299 125.718c0 20.82 37.5 20.215 51.29 18.199 12.49-1.826 35.31-5.356 43.27-16.926 7.92-11.519-4.69-20.525-14.64-23.29-10.71-2.975-25.58-2.791-34.68 4.518-9.83 7.899-1.66 18.779 6.11 24.371 18.23 13.125 42.91 17.039 64.78 18.645 29.26 2.149 58.88.041 87.88-4.009 32.77-4.578 101.81-12.955 94.3-61.0872-7.44-47.665-70.81-72.2326-111.42-78.00441-16.81-2.38847-39.05-3.78665-52.12 9.67211-13.23 13.6296-1.61 42.9156 4.08 57.133 11.03 27.5975 19.75 53.7565 21.76 83.6765 1.41 21.049.89 60.229.89 81.314" stroke-opacity=".3"/><path d="m2415.13 151.235c29.26 2.149 58.88.041 87.88-4.009 32.77-4.578 101.81-12.955 94.3-61.0872-7.44-47.665-70.81-72.2326-111.42-78.00441-16.81-2.38847-39.05-3.78665-52.12 9.67211-13.23 13.6296-1.61 42.9156 4.08 57.133 11.03 27.5975 19.75 53.7565 21.76 83.6765 1.41 21.049.89 60.229.89 81.314"/><path d="m1831.49 131.591c.93 5.57 5.87 8.258 10.69 10.247 24.3 10.034 51.29 13.584 77.38 10.619 28.13-3.196 101.12-32.57 60.15-69.2833-15.72-14.082-37.78-22.0371-57.77-27.4759-27.97-7.6057-57.25-10.18-86-6.1636-9.57 1.3371-23.96 1.7286-32.75 6.4606-1.33.7203 4.62-2.8665 5.43-3.2674 14.75-7.3756 31.16-12.0833 47.08-16.04 36.62-9.1058 73.92-16.5761 111.38-21.1639 22.88-2.8015 46.34-5.75903 69.44-5.3466 13.8.2465 19.36 2.2562 22.2 15.9657 11.51 55.5494-5.25 111.2524-12.55 166.1174-1.48 11.109-15.32 57.75-.82 57.75" stroke-opacity=".3"/><path d="m2036.52 10.1768c13.8.2465 19.36 2.2562 22.2 15.9657 11.5 55.5494-5.25 111.2525-12.55 166.1175-1.48 11.109-15.32 57.75-.82 57.75"/><path d="m2895.22 4.95369c-30.14-1.83785-59.63-.00003-90.3.04927-11.96.01922-24.04.13835-18.56 3.17815 7.49 4.16479 12.85 10.90619 17 17.68869 15.43 25.2222 28.43 33.9501 39.43 61.3831 13.38 33.3631 27.07 71.5641 23.02 108.1211-1.98 17.906-8.69 32.906-26.58 41.685-13.76 6.751-30.15-.848-30.82-16.635-.92-21.67 15.04-32.597 27.18-49.036 19.22-26.021 39.93-50.958 59.7-76.5607 15.19-19.6698 34.75-40.0098 44.11-63.4174 1.41-3.5086 2.09-7.0726 1.71-10.8418-.02-.1749-1.11-6.156-2.37-3.4159-5.88 12.7385-3.39 33.3679-3.72 46.7833-.99 40.2955.72 80.6315-1.71 120.8935-.84 13.936-2.59 27.832-2.59 41.808 0 2.196.97-3.747 1.33-4.827" stroke-opacity=".3"/><path d="m2939.4 31.4101c1.41-3.5087 2.09-7.0727 1.71-10.8418-.02-.1749-1.11-6.156-2.37-3.416-5.88 12.7386-3.39 33.368-3.72 46.7833-.99 40.2954.72 80.6314-1.71 120.8944-.84 13.935-2.59 27.831-2.59 41.807 0 2.196.97-3.747 1.33-4.826"/></g></g></svg>

<svg width="3090" height="253" viewBox="0 0 3090 253" fill="none" xmlns="http://www.w3.org/2000/svg">
<line y1="151.5" x2="3090" y2="151.5" stroke="black" stroke-dasharray="10 10"/>
<line y1="239.5" x2="3090" y2="239.5" stroke="black" stroke-dasharray="10 10"/>
<line y1="91.5" x2="3090" y2="91.5" stroke="black" stroke-dasharray="10 10"/>
<line y1="1.5" x2="3090" y2="1.5" stroke="black" stroke-dasharray="10 10"/>
<path d="M163.973 3.10352C182.985 3.10352 126.382 6.19374 107.41 7.41773C102.65 7.72486 12 9.56646 12 4.68631C12 4.41586 30.1293 22.1999 31.017 22.9332C57.3689 44.7022 78.909 71.1245 94.8945 101.358C110.404 130.691 127.894 165.17 130.49 198.8C130.977 205.102 131.511 245.301 115.049 237.07C99.9615 229.526 90.1007 205.359 87.6615 189.697C84.0788 166.693 88.7013 144.201 104.484 126.795C120.337 109.311 138.837 100.237 160.023 90.1605C170.038 85.3972 182.871 79.6917 191.149 90.1605C197.112 97.7017 228.745 138.762 201.245 149.262C182.745 151.262 164.245 131.762 164.245 122.262C164.245 112.762 170.245 103.762 185.745 103.762" stroke="black" stroke-opacity="0.3" stroke-width="5" stroke-linecap="round"/>
<path d="M163.973 3.10352C182.985 3.10352 126.382 6.19374 107.41 7.41773C102.65 7.72486 12 9.56646 12 4.68631C12 4.41586 30.1293 22.1999 31.017 22.9332C57.3689 44.7022 78.909 71.1245 94.8945 101.358C110.404 130.691 127.894 165.17 130.49 198.8C130.977 205.102 131.511 245.301 115.049 237.07C99.9615 229.526 90.1007 205.359 87.6615 189.697C84.0788 166.693 88.7013 144.201 104.484 126.795C120.337 109.311 138.837 100.237 160.023 90.1605" stroke="black" stroke-width="5" stroke-linecap="round"/>
<path d="M529.705 138.04C525.044 142.701 533.946 145.191 537.994 146.817C559.933 155.629 586.431 149.222 605.773 137.065C614.799 131.391 630.155 112.283 624.952 99.133C618.114 81.8479 593.533 73.73 577.654 69.0634C548.7 60.5545 516.264 57.2218 486.145 59.4737C481.471 59.8231 458.856 62.9748 459.001 62.887C515.367 28.5773 584.592 23.8822 646.407 5.02336C656.9 1.82208 653.555 8.64097 655.103 17.2137C660.348 46.2632 675.707 73.2304 687.692 99.8644C702.1 131.882 715.176 164.761 713.454 200.638C712.757 215.163 705.647 232.913 690.13 238.085C676.299 242.696 677.493 222.54 677.777 214.86C678.777 187.855 686.712 160.597 702.727 138.711C717.973 117.874 724.979 109.957 746.696 95.7166C748.592 94.4735 755.652 88.9901 758.48 91.1656C760.493 92.7139 759.038 94.2654 758.074 95.229" stroke="black" stroke-opacity="0.3" stroke-width="5" stroke-linecap="round"/>
<path d="M655.103 17.2139C660.348 46.2634 675.707 73.2306 687.692 99.8645C702.1 131.882 715.176 164.762 713.454 200.638C712.757 215.164 705.647 232.913 690.13 238.085C676.299 242.696 677.493 222.54 677.777 214.86C678.777 187.855 686.712 160.598 702.727 138.711C717.973 117.875 724.979 109.957 746.696 95.7168C748.592 94.4737 755.652 88.9903 758.48 91.1657C760.493 92.7141 759.038 94.2655 758.074 95.2291" stroke="black" stroke-width="5" stroke-linecap="round"/>
<path d="M960.576 127.131C962.16 141.39 1007.86 123.655 1013.73 119.817C1020.12 115.637 1028.53 108.25 1020.07 101.612C1008.7 92.7021 994.324 93.7802 981.056 96.7362C971.679 98.8254 952.419 102.572 948.711 113.478C944.719 125.219 958.446 136.075 967.403 140.296C987.596 149.814 1011.65 149.336 1033.39 148.423" stroke="black" stroke-opacity="0.3" stroke-width="5" stroke-linecap="round"/>
<path d="M1004 149C1004 149 1014 149 1031 148.305C1094 145.73 1079 26.9999 1080.83 17.4056C1080.83 9.50008 1080.87 42.3391 1081.05 49.9984C1081.93 86.3361 1081.05 113 1083.32 148.305C1082.52 169.086 1085.18 184.066 1083.56 204.801C1082.63 216.644 1081.2 222.99 1074.78 233.259C1069.5 240.5 1061.8 240.829 1059.5 228.532C1054.35 200.953 1062.99 174.39 1080.64 153.832C1090.77 142.04 1103.56 132.832 1116.57 124.493C1125.44 118.804 1135.82 113.572 1142.08 104.745" stroke="black" stroke-width="5" stroke-linecap="round"/>
<path d="M1557.25 10.9752C1556.64 6.09938 1446.95 17.0104 1435.51 17.9644C1426.81 18.6892 1436.5 19.7417 1440.87 23.6532C1472.83 52.2482 1488.48 80.1276 1501.82 119.617C1510.18 144.372 1514.88 169.887 1516.69 195.929C1517.71 210.54 1520.77 225.314 1511.57 238.284C1496.22 259.93 1476 231.738 1474.52 217.79C1471.21 186.692 1500.25 163.382 1521.49 145.623C1552.36 119.814 1582.11 107.041 1595.61 67.4712C1600.56 52.9413 1598.44 41.9169 1596.83 27.4055C1595.98 19.7908 1600.87 42.339 1601.05 49.9983C1601.93 86.336 1601.71 111.994 1600.32 148.305C1599.52 169.086 1599.18 184.066 1597.56 204.801C1596.63 216.644 1595.2 228.99 1588.78 239.259C1579.23 254.537 1575.8 240.829 1573.5 228.532C1568.35 200.953 1582.99 174.39 1600.64 153.832C1610.77 142.04 1623.56 132.832 1636.57 124.493C1645.44 118.803 1655.82 113.572 1662.08 104.745C1666.16 99.0079 1660.31 96.3743 1655.26 96.3743" stroke="black" stroke-opacity="0.3" stroke-width="5" stroke-linecap="round"/>
<path d="M1595.61 67.4714C1600.56 52.9416 1598.44 41.9172 1596.83 27.4057C1595.98 19.791 1600.87 42.3392 1601.05 49.9985C1601.93 86.3362 1601.71 111.995 1600.32 148.305C1599.52 169.086 1599.18 184.066 1597.56 204.801C1596.63 216.644 1595.2 228.99 1588.78 239.26C1579.23 254.538 1575.8 240.829 1573.5 228.532C1568.35 200.954 1582.99 174.39 1600.64 153.832C1610.77 142.04 1623.56 132.832 1636.57 124.494C1645.44 118.804 1655.82 113.572 1662.08 104.745C1666.16 99.0081 1660.31 96.3745 1655.26 96.3745" stroke="black" stroke-width="5" stroke-linecap="round"/>
<path d="M2299 125.718C2299 146.538 2336.5 145.933 2350.29 143.917C2362.78 142.091 2385.6 138.561 2393.56 126.991C2401.48 115.472 2388.87 106.466 2378.92 103.701C2368.21 100.726 2353.34 100.91 2344.24 108.219C2334.41 116.118 2342.58 126.998 2350.35 132.59C2368.58 145.715 2393.26 149.629 2415.13 151.235C2444.39 153.384 2474.01 151.276 2503.01 147.226C2535.78 142.648 2604.82 134.271 2597.31 86.1388C2589.87 38.4738 2526.5 13.9062 2485.89 8.13439C2469.08 5.74592 2446.84 4.34774 2433.77 17.8065C2420.54 31.4361 2432.16 60.7221 2437.85 74.9395C2448.88 102.537 2457.6 128.696 2459.61 158.616C2461.02 179.665 2460.5 218.845 2460.5 239.93" stroke="black" stroke-opacity="0.3" stroke-width="5" stroke-linecap="round"/>
<path d="M2415.13 151.235C2444.39 153.384 2474.01 151.276 2503.01 147.226C2535.78 142.648 2604.82 134.271 2597.31 86.1388C2589.87 38.4738 2526.5 13.9062 2485.89 8.13439C2469.08 5.74592 2446.84 4.34774 2433.77 17.8065C2420.54 31.4361 2432.16 60.7221 2437.85 74.9395C2448.88 102.537 2457.6 128.696 2459.61 158.616C2461.02 179.665 2460.5 218.845 2460.5 239.93" stroke="black" stroke-width="5" stroke-linecap="round"/>
<path d="M1831.49 131.591C1832.42 137.162 1837.36 139.85 1842.18 141.839C1866.48 151.873 1893.47 155.423 1919.56 152.458C1947.69 149.262 2020.68 119.888 1979.71 83.1741C1963.99 69.0922 1941.93 61.1371 1921.94 55.6982C1893.97 48.0926 1864.69 45.5183 1835.94 49.5347C1826.37 50.8717 1811.98 51.2633 1803.19 55.9953C1801.86 56.7156 1807.81 53.1288 1808.62 52.7279C1823.37 45.3523 1839.78 40.6446 1855.7 36.6879C1892.32 27.5821 1929.62 20.1117 1967.08 15.524C1989.96 12.7225 2013.42 9.76496 2036.52 10.1774C2050.32 10.4239 2055.88 12.4336 2058.72 26.1431C2070.23 81.6925 2053.47 137.395 2046.17 192.261C2044.69 203.37 2030.85 250.011 2045.35 250.011" stroke="black" stroke-opacity="0.3" stroke-width="5" stroke-linecap="round"/>
<path d="M2036.52 10.1768C2050.32 10.4233 2055.88 12.433 2058.72 26.1425C2070.22 81.6919 2053.47 137.395 2046.17 192.26C2044.69 203.369 2030.85 250.01 2045.35 250.01" stroke="black" stroke-width="5" stroke-linecap="round"/>
<path d="M2895.22 4.95369C2865.08 3.11584 2835.59 4.95366 2804.92 5.00296C2792.96 5.02218 2780.88 5.14131 2786.36 8.18111C2793.85 12.3459 2799.21 19.0873 2803.36 25.8698C2818.79 51.092 2831.79 59.8199 2842.79 87.2529C2856.17 120.616 2869.86 158.817 2865.81 195.374C2863.83 213.28 2857.12 228.28 2839.23 237.059C2825.47 243.81 2809.08 236.211 2808.41 220.424C2807.49 198.754 2823.45 187.827 2835.59 171.388C2854.81 145.367 2875.52 120.43 2895.29 94.8273C2910.48 75.1575 2930.04 54.8175 2939.4 31.4099C2940.81 27.9013 2941.49 24.3373 2941.11 20.5681C2941.09 20.3932 2940 14.4121 2938.74 17.1522C2932.86 29.8907 2935.35 50.5201 2935.02 63.9355C2934.03 104.231 2935.74 144.567 2933.31 184.829C2932.47 198.765 2930.72 212.661 2930.72 226.637C2930.72 228.833 2931.69 222.89 2932.05 221.81" stroke="black" stroke-opacity="0.3" stroke-width="5" stroke-linecap="round"/>
<path d="M2939.4 31.4101C2940.81 27.9014 2941.49 24.3374 2941.11 20.5683C2941.09 20.3934 2940 14.4123 2938.74 17.1523C2932.86 29.8909 2935.35 50.5203 2935.02 63.9356C2934.03 104.231 2935.74 144.567 2933.31 184.83C2932.47 198.765 2930.72 212.661 2930.72 226.637C2930.72 228.833 2931.69 222.89 2932.05 221.811" stroke="black" stroke-width="5" stroke-linecap="round"/>
</svg>
